src/main/resources/icons/PhpstormRemoteInterpreterIcons/icons/remoteHHVM_interpreter.svg

<svg xmlns="http://www.w3.org/2000/svg" width="16" height="16" viewBox="0 0 16 16">
  <g fill="none" fill-rule="evenodd">
    <path fill="#9AA7B0" d="M11,16 L11,10 L13.6832001,10 C14.4400002,10 15.0334002,10.2035997 15.4204002,10.5819998 C15.7386002,10.9087998 16,11.3554001 16,11.8800001 C16,12.8862002 15.3258002,13.4801999 14.4916002,13.7209999 L16.1170002,16 L14.8614002,16 L13.3822001,14 L12,14 L12,16 L11,16 Z M12,13 L13.6058001,13 C14.3626001,13 15,12.5685998 15,11.9579998 L15,11.9407998 C15,11.2957998 14.3798001,11 13.5972001,11 L12,11 L12,13 Z"/>
    <polygon fill="#8797A2" points="8 5 2 10 2 5 8 0"/>
    <path fill="#8797A2" d="M10,14.3333333 L8,16 L8,11 L10,9.33333333 L10,14.3333333 Z M10.4,9 L14,6 L14,9 L10.4,9 Z"/>
    <polygon fill="#8797A2" points="14 .353 8.426 5 14 5"/>
    <polygon fill="#8797A2" points="2 15.645 7.574 10.999 2 10.999"/>
    <polygon fill="#F4AF3D" points="7.988 5.865 2.552 10.394 7.988 10.395"/>
    <polygon fill="#FFF" points="8 10.396 13.435 5.865 8 5.865"/>
  </g>
</svg>

<svg xmlns="http://www.w3.org/2000/svg" width="16" height="16" viewBox="0 0 16 16"><rect id="frame" width="16" height="16" fill="none"/><g fill="none" fill-rule="evenodd"><path fill="#9AA7B0" d="M11 16v-6h2.683c.757 0 1.35.204 1.737.582.319.327.58.773.58 1.298 0 1.006-.674 1.6-1.508 1.841L16.117 16h-1.256l-1.479-2H12v2h-1zm1-3h1.606c.757 0 1.394-.431 1.394-1.042v-.017c0-.645-.62-.941-1.403-.941H12v2z"/><path fill="#8797A2" d="M8 5l-6 5V5l6-5z"/><path fill="#8797A2" d="M10 14.333L8 16v-5l2-1.667v5zM10.4 9L14 6v3h-3.6z"/><path fill="#8797A2" d="M14 .353L8.426 5H14z"/><path fill="#8797A2" d="M2 15.645l5.574-4.646H2z"/><path fill="#F4AF3D" d="M7.988 5.865l-5.436 4.529 5.436.001z"/><path fill="#FFF" d="M8 10.396l5.435-4.531H8z"/></g></svg>
